Catalina-dark/actions/22/audio-on.svg

<svg xmlns="http://www.w3.org/2000/svg" viewBox="0 0 22 22">
  <defs id="defs3051">
    <style type="text/css" id="current-color-scheme">
      .ColorScheme-Text {
        color:#f2f2f2
      }
      </style>
  </defs>
 <path 
     style="fill:currentColor;fill-opacity:1;stroke:none"      
	 class="ColorScheme-Text"
        d="M 11 4.0917969 C 10.803061 4.0917969 10.632219 4.162842 10.488281 4.3066406 L 6.7050781 8.0917969 L 3.7265625 8.0917969 C 3.5294845 8.0917969 3.360735 8.162842 3.2167969 8.3066406 C 3.0728588 8.4505787 3 8.6214208 3 8.8183594 L 3 13.181641 C 3 13.378579 3.0728588 13.549561 3.2167969 13.693359 C 3.3608744 13.837297 3.529624 13.908203 3.7265625 13.908203 L 6.7050781 13.908203 L 10.488281 17.693359 C 10.632219 17.837158 10.803061 17.908203 11 17.908203 C 11.197078 17.908203 11.367781 17.837158 11.511719 17.693359 C 11.655657 17.549561 11.726562 17.378579 11.726562 17.181641 L 11.726562 4.8183594 C 11.726562 4.6214208 11.655517 4.4505787 11.511719 4.3066406 C 11.367641 4.162842 11.197078 4.0917969 11 4.0917969 z M 15.181641 5.5898438 C 14.984702 5.5898438 14.813999 5.6627025 14.669922 5.8066406 C 14.526123 5.9505787 14.455078 6.1214208 14.455078 6.3183594 C 14.455078 6.6139066 14.60289 6.8366721 14.898438 6.9882812 C 15.322581 7.2079542 15.610249 7.3747487 15.761719 7.4882812 C 16.322408 7.8975005 16.759842 8.4098885 17.074219 9.0273438 C 17.388595 9.644799 17.544922 10.303044 17.544922 11 C 17.544922 11.696956 17.388595 12.353248 17.074219 12.970703 C 16.759842 13.588298 16.322268 14.102639 15.761719 14.511719 C 15.610249 14.625391 15.322581 14.792046 14.898438 15.011719 C 14.60289 15.163328 14.455078 15.386093 14.455078 15.681641 C 14.455078 15.878579 14.526123 16.049561 14.669922 16.193359 C 14.813999 16.337437 14.98875 16.408203 15.193359 16.408203 C 15.284297 16.408203 15.378233 16.389221 15.476562 16.351562 C 16.53699 15.904406 17.389248 15.192004 18.033203 14.210938 C 18.677159 13.230011 19 12.159176 19 11 C 19 9.8408243 18.677159 8.7705472 18.033203 7.7890625 C 17.389248 6.8081357 16.53699 6.0935014 15.476562 5.6464844 C 15.378233 5.6086867 15.27997 5.5898437 15.181641 5.5898438 z M 14.044922 8.2714844 C 13.847983 8.2714844 13.677002 8.3423891 13.533203 8.4824219 C 13.389405 8.6225941 13.318359 8.7955298 13.318359 9 C 13.318359 9.1591408 13.364001 9.2924375 13.455078 9.4023438 C 13.546016 9.51225 13.654328 9.6079993 13.783203 9.6875 C 13.911799 9.7670007 14.041047 9.8545153 14.169922 9.9492188 C 14.298797 10.043922 14.409062 10.177358 14.5 10.351562 C 14.590659 10.525906 14.636719 10.74239 14.636719 11 C 14.636719 11.25761 14.590798 11.474094 14.5 11.648438 C 14.409062 11.822781 14.298797 11.955938 14.169922 12.050781 C 14.041047 12.145485 13.911799 12.232999 13.783203 12.3125 C 13.654328 12.391861 13.546016 12.485936 13.455078 12.595703 C 13.364141 12.705749 13.318359 12.840859 13.318359 13 C 13.318359 13.20461 13.389405 13.377406 13.533203 13.517578 C 13.677002 13.65775 13.847983 13.726562 14.044922 13.726562 C 14.158454 13.726562 14.254343 13.70758 14.330078 13.669922 C 14.860501 13.457502 15.285374 13.103673 15.607422 12.607422 C 15.929469 12.11131 16.091797 11.575752 16.091797 11 C 16.091797 10.424248 15.929469 9.8867362 15.607422 9.3867188 C 15.285235 8.8867013 14.860501 8.5327346 14.330078 8.328125 C 14.254343 8.2903273 14.158454 8.2714844 14.044922 8.2714844 z "
     />
</svg>

<svg viewBox="0 0 22 22" xmlns="http://www.w3.org/2000/svg">
<defs>
<style id="current-color-scheme" type="text/css">.ColorScheme-Text {
        color:#f2f2f2
      }</style>
</defs>
<path class="ColorScheme-Text" d="m11 4.0918c-0.19694 0-0.36778 0.071045-0.51172 0.21484l-3.7832 3.7852h-2.9785c-0.19708 0-0.36583 0.071045-0.50977 0.21484-0.14394 0.14394-0.2168 0.31478-0.2168 0.51172v4.3633c0 0.19694 0.072859 0.36792 0.2168 0.51172 0.14408 0.14394 0.31283 0.21484 0.50977 0.21484h2.9785l3.7832 3.7852c0.14394 0.1438 0.31478 0.21484 0.51172 0.21484 0.19708 0 0.36778-0.071045 0.51172-0.21484 0.14394-0.1438 0.21484-0.31478 0.21484-0.51172v-12.363c0-0.19694-0.071045-0.36778-0.21484-0.51172-0.14408-0.1438-0.31464-0.21484-0.51172-0.21484zm4.1816 1.498c-0.19694 0-0.36764 0.072859-0.51172 0.2168-0.1438 0.14394-0.21484 0.31478-0.21484 0.51172 0 0.29555 0.14781 0.51831 0.44336 0.66992 0.42414 0.21967 0.71181 0.38647 0.86328 0.5 0.56069 0.40922 0.99812 0.92161 1.3125 1.5391 0.31438 0.61746 0.4707 1.2757 0.4707 1.9727s-0.15633 1.3532-0.4707 1.9707c-0.31438 0.6176-0.75195 1.1319-1.3125 1.541-0.15147 0.11367-0.43914 0.28033-0.86328 0.5-0.29555 0.15161-0.44336 0.37437-0.44336 0.66992 0 0.19694 0.071045 0.36792 0.21484 0.51172 0.14408 0.14408 0.31883 0.21484 0.52344 0.21484 0.090938 0 0.18487-0.018982 0.2832-0.056641 1.0604-0.44716 1.9127-1.1596 2.5566-2.1406 0.64396-0.98093 0.9668-2.0518 0.9668-3.2109 0-1.1592-0.32284-2.2295-0.9668-3.2109-0.64396-0.98093-1.4962-1.6956-2.5566-2.1426-0.098329-0.037798-0.19659-0.056641-0.29492-0.056641zm-1.1367 2.6816c-0.19694 0-0.36792 0.070905-0.51172 0.21094-0.1438 0.14017-0.21484 0.31311-0.21484 0.51758 0 0.15914 0.045642 0.29244 0.13672 0.40234 0.090938 0.10991 0.19925 0.20566 0.32812 0.28516 0.1286 0.079501 0.25784 0.16702 0.38672 0.26172 0.12888 0.094703 0.23914 0.22814 0.33008 0.40234 0.090659 0.17434 0.13672 0.39083 0.13672 0.64844s-0.045921 0.47409-0.13672 0.64844c-0.090938 0.17434-0.2012 0.3075-0.33008 0.40234-0.12888 0.094704-0.25812 0.18222-0.38672 0.26172-0.12888 0.079361-0.23719 0.17344-0.32812 0.2832-0.090937 0.11005-0.13672 0.24516-0.13672 0.4043 0 0.20461 0.071046 0.37741 0.21484 0.51758 0.1438 0.14017 0.31478 0.20898 0.51172 0.20898 0.11353 0 0.20942-0.018982 0.28516-0.05664 0.53042-0.21242 0.9553-0.56625 1.2773-1.0625 0.32205-0.49611 0.48438-1.0317 0.48438-1.6074s-0.16233-1.1133-0.48438-1.6133c-0.32219-0.50002-0.74692-0.85398-1.2773-1.0586-0.075735-0.037798-0.17162-0.056641-0.28516-0.056641z" fill="currentColor"/>
</svg>
